X: 35710
T: Saint Joseph's
R: reel
M: 4/4
K: Dmajor
A|:d2fd cdec|defd A2 dc|B2 gf edcB|AaaA aABc|
d2fd cdec|defd A2 dc|B2 gf edcB|1 Afec d3 A:|2 Afec d3e||
|:f2fg fedc|B2G2 g2g2|e2ef edcB|A2a2 agfe|
f2fg fedc|B2G2 g2g2|e2ef edcB|Acec d2d2:|

